X:1
T:Title
%%score ( 1 2 ) ( 3 4 )
L:1/8
Q:1/4=125
M:4/4
K:Ab
V:1 treble nm="Grand Piano, Unnamed-000"
V:2 treble 
V:3 bass nm="Choir Pad, Olive's Brow"
V:4 bass 
V:1
 [CE]4 [CE]2 [CE]2 | [DF]2 [DF]2 [CE]4 | [B,E]4 [CE]4 | [CA]4 [CA]2 [CA]2 | [EB]2 [Ec]2 [FB]4 | %5
w: By~William~~Batchelder~Bradbury,~1853 * *|||||
 B2- [DB]2 [CA]4 | [Ec]4 [EB]2 [EB]2 | [EB]2 [EB]2 [=DB]4 | [FA]4 [EG]4 | [EG]4 [EA]2 [EA]2 | %10
w: |||||
 [FA]2 [DF]2 C2 B,2 | [DE]4 [CE]4- | [CE]4 z4 |] %13
w: |||
V:2
 x8 | x8 | x8 | x8 | x8 | E2 z2 z4 | x8 | x8 | x8 | x8 | z4 E4 | x8 | x8 |] %13
V:3
 [A,,A,]4 [A,,A,]2 [A,,A,]2 | [D,A,]2 [D,A,]2 [E,A,]4 | [E,G,]4 [A,,A,]4 | %3
 [A,,A,]4 [F,A,]2 [F,A,]2 | [E,G,]2 [A,,A,]2 [D,A,]4 | [E,G,]4 [A,,A,]4 | %6
 [A,,A,]4 [E,G,]2 [E,G,]2 | [E,G,]2 [E,G,]2 F,2 B,2 | [=D,B,]4 [E,B,]4 | [D,B,]4 [C,A,]2 [C,A,]2 | %10
 [D,A,]2 [D,A,]2 A,2 G,2 | [E,B,]4 [A,,A,]4- | [A,,A,]4 z4 |] %13
V:4
 x8 | x8 | x8 | x8 | x8 | x8 | x8 | z4 B,,4 | x8 | x8 | z4 E,4 | x8 | x8 |] %13

